X:1
T:St. Wulstan, 10.10.10.10
T:St. Wulstan, 10.10.10.10
T:Ivor Atkins, 1916
T:Public Domain Courtesy of the Cyber Hymnal™
C:Ivor Atkins, 1916
Z:Public Domain
Z:Courtesy of the Cyber Hymnal™
%%score ( 1 2 ) ( 3 4 )
L:1/8
Q:1/4=110
M:4/4
K:Eb
V:1 treble 
V:2 treble 
V:3 bass 
V:4 bass 
V:1
 [B,E]2 [B,F]2 [EG]2 [DB]2 | [DG]2 [CE]2 [CF]2 A4 | D2 [EG]4 [DF]2- | [DF]4 [EG]2 [F=A]2 | %4
 [FB]2 [Ge]2 [Bd]2 [GB]2 | [GB]2 [Gc]4 c4 | E2 [DB]6 | [FB]2 [Ac]4 [Fc]2- | [Fc]2 [Ge]6 | %9
 [Gd]2 [Gc]2 [EB]2 [EA]2 | [EG]2 [Ec]6 | [DF]2 [DB]4 [DG]2- | [DG]2 [CE]2 [CF]2 [DA]2 | %13
 [EG]2 [EF]4 [DF]2- x2 | [DF]2 E6 |] %15
V:2
 x8 | x6 C2 x2 | x8 | x8 | x8 | x6 F2 x2 | x8 | x8 | x8 | x8 | x8 | x8 | x8 | x10 | x2 E6 |] %15
V:3
 [E,G,]2 [D,F,]2 [E,B,]2 [G,,B,]2 | [B,,B,]2 [C,G,]2 [A,,C]2 [F,,A,]2- x2 | %2
 [F,,A,]2 B,4 [B,,B,]2- | [B,,B,]4 [E,B,]2 [E,C]2 | [D,D]2 [C,E]2 [D,F]2 [G,D]2 | %5
 [F,D]2 [E,B,]4 [F,=A,]2- x2 | [F,A,]2 [B,,B,]6 | [B,D]2 [A,E]4 [A,D]2- | [A,D]2 [G,C]6 | %9
 [F,=B,]2 [E,C]2 [D,G,]2 [C,A,]2 | [B,,B,]2 [=A,,F,]6 | [B,,B,]2 [G,,B,]4 [B,,B,]2- | %12
 [B,,B,]2 [C,G,]2 [A,,A,]2 [F,,A,]2 | [G,,B,]2 [A,,C]4 B,2 x2 | A,2 [E,G,]6 |] %15
V:4
 x8 | x10 | x2 (G,,2 A,,2) x2 | x8 | x8 | x10 | x8 | x8 | x8 | x8 | x8 | x8 | x8 | x6 B,,4 | x8 |] %15

